src/images/Ginetta_Logo.svg

<svg fill="none" height="228" viewBox="0 0 130 228" width="130" xmlns="http://www.w3.org/2000/svg"><path d="m65 130c-35.9 0-65-29.1-65-65s29.1-65 65-65 65 29.1 65 65-29.1 65-65 65zm0 97.6c-35.9 0-65-29.1-65-65h130c0 35.8-29.1 65-65 65z" fill="#fff"/></svg>

<svg width="130" height="228" viewBox="0 0 130 228" fill="none" xmlns="http://www.w3.org/2000/svg">
<path d="M65 130C29.1 130 0 100.9 0 65C0 29.1 29.1 0 65 0C100.9 0 130 29.1 130 65C130 100.9 100.9 130 65 130ZM65 227.6C29.1 227.6 0 198.5 0 162.6H130C130 198.4 100.9 227.6 65 227.6Z" fill="white"/>
</svg>
